X:1
T:Tenpenny Bit, The
R:jig
M:6/8
L:1/8
K:Ador
eAA eAA|BAB GBd|eAA eAA|def gfg|
eAA eAA|BAB GBd|~e3 gdB|BAG A3:|
eaa aga|bab age|eaa aga|bgf ~g3|
eaa aga|bab ged|~e3 gdB|BAG A3:|
</abc>



